X: 1
T: Schottisch fr\aan Haver\"o
T: Schottisch fr\aan H\"arjedalen
O: H\"arjedalen
Z: 1997 by John Chambers <jc:trillian.mit.edu>
M: C|
L: 1/8
K: Dm
|: "Dm"D2 D<E F>G F<E | D2 A2 "A7"A4 | "Dm"d>^c d<e f2 f2 \
|1,3 "A7"e>f e<^c A2 A2 :|2,4 "A7"e>f e<^c "Dm"d4 :|
|: "Dm"{f}[a2A2] a<^g [a2A2]- a2 | {g}[fA]>g f<e [f2A2]- f2 \
|1,3 "A7"e>f e<^c A2- A2 | "Dm"{G}F>G F<E F<E D2 \
:|2,4 "A7"e>f e<^c A>c e<c | "Dm"d2 d2 d4 :|

